svg/Tango/actions/go-first.svg

<?xml version="1.0" encoding="UTF-8" standalone="no"?>
<!-- Created with Inkscape (http://www.inkscape.org/) -->
<svg
   xmlns:dc="http://purl.org/dc/elements/1.1/"
   xmlns:cc="http://creativecommons.org/ns#"
   xmlns:rdf="http://www.w3.org/1999/02/22-rdf-syntax-ns#"
   xmlns:svg="http://www.w3.org/2000/svg"
   xmlns="http://www.w3.org/2000/svg"
   xmlns:xlink="http://www.w3.org/1999/xlink"
   xmlns:sodipodi="http://sodipodi.sourceforge.net/DTD/sodipodi-0.dtd"
   xmlns:inkscape="http://www.inkscape.org/namespaces/inkscape"
   sodipodi:docname="go-first.svg"
   sodipodi:docbase="/home/tigert/cvs/freedesktop.org/tango-icon-theme/scalable/actions"
   inkscape:version="0.46"
   sodipodi:version="0.32"
   id="svg11300"
   height="48px"
   width="48px"
   inkscape:export-filename="/home/jimmac/Desktop/wi-fi.png"
   inkscape:export-xdpi="90.000000"
   inkscape:export-ydpi="90.000000"
   inkscape:output_extension="org.inkscape.output.svg.inkscape">
  <defs
     id="defs3">
    <inkscape:perspective
       sodipodi:type="inkscape:persp3d"
       inkscape:vp_x="0 : 24 : 1"
       inkscape:vp_y="0 : 1000 : 0"
       inkscape:vp_z="48 : 24 : 1"
       inkscape:persp3d-origin="24 : 16 : 1"
       id="perspective24" />
    <linearGradient
       id="linearGradient2301">
      <stop
         id="stop2303"
         offset="0"
         style="stop-color:#73d216" />
      <stop
         id="stop2305"
         offset="1.0000000"
         style="stop-color:#4e9a06" />
    </linearGradient>
    <radialGradient
       inkscape:collect="always"
       xlink:href="#linearGradient2301"
       id="radialGradient1441"
       gradientUnits="userSpaceOnUse"
       gradientTransform="matrix(-1.150574,1.757515e-16,3.460315e-16,1.223465,54.74191,-2.461415)"
       cx="22.752287"
       cy="29.900566"
       fx="22.752287"
       fy="29.900566"
       r="16.956199" />
    <linearGradient
       id="linearGradient8662"
       inkscape:collect="always">
      <stop
         id="stop8664"
         offset="0"
         style="stop-color:#000000;stop-opacity:1;" />
      <stop
         id="stop8666"
         offset="1"
         style="stop-color:#000000;stop-opacity:0;" />
    </linearGradient>
    <linearGradient
       id="linearGradient8650"
       inkscape:collect="always">
      <stop
         id="stop8652"
         offset="0"
         style="stop-color:#ffffff;stop-opacity:1;" />
      <stop
         id="stop8654"
         offset="1"
         style="stop-color:#ffffff;stop-opacity:0;" />
    </linearGradient>
    <radialGradient
       gradientUnits="userSpaceOnUse"
       gradientTransform="matrix(1.000000,0.000000,0.000000,0.536723,4.441327e-15,16.87306)"
       r="15.644737"
       fy="36.421127"
       fx="24.837126"
       cy="36.421127"
       cx="24.837126"
       id="radialGradient8668"
       xlink:href="#linearGradient8662"
       inkscape:collect="always" />
    <radialGradient
       inkscape:collect="always"
       xlink:href="#linearGradient8650"
       id="radialGradient6058"
       gradientUnits="userSpaceOnUse"
       gradientTransform="matrix(2.046729,-3.749427e-16,2.853404e-16,1.557610,-19.71021,3.166594)"
       cx="17.474981"
       cy="1.4732735"
       fx="17.474981"
       fy="1.4732735"
       r="17.171415" />
  </defs>
  <sodipodi:namedview
     inkscape:window-y="30"
     inkscape:window-x="0"
     inkscape:window-height="818"
     inkscape:window-width="1280"
     inkscape:showpageshadow="false"
     inkscape:document-units="px"
     inkscape:grid-bbox="true"
     showgrid="false"
     inkscape:current-layer="layer1"
     inkscape:cy="25.355927"
     inkscape:cx="12.917407"
     inkscape:zoom="11.313708"
     inkscape:pageshadow="2"
     inkscape:pageopacity="0.0"
     borderopacity="0.25490196"
     bordercolor="#666666"
     pagecolor="#ffffff"
     id="base"
     fill="#4e9a06"
     stroke="#4e9a06" />
  <metadata
     id="metadata4">
    <rdf:RDF>
      <cc:Work
         rdf:about="">
        <dc:format>image/svg+xml</dc:format>
        <dc:type
           rdf:resource="http://purl.org/dc/dcmitype/StillImage" />
        <dc:creator>
          <cc:Agent>
            <dc:title>Jakub Steiner</dc:title>
          </cc:Agent>
        </dc:creator>
        <dc:source>http://jimmac.musichall.cz</dc:source>
        <cc:license
           rdf:resource="http://creativecommons.org/licenses/publicdomain/" />
        <dc:title>Go Previous</dc:title>
        <dc:subject>
          <rdf:Bag>
            <rdf:li>go</rdf:li>
            <rdf:li>previous</rdf:li>
            <rdf:li>left</rdf:li>
            <rdf:li>arrow</rdf:li>
            <rdf:li>pointer</rdf:li>
            <rdf:li>&lt;</rdf:li>
          </rdf:Bag>
        </dc:subject>
        <dc:contributor>
          <cc:Agent>
            <dc:title>Andreas Nilsson</dc:title>
          </cc:Agent>
        </dc:contributor>
      </cc:Work>
      <cc:License
         rdf:about="http://creativecommons.org/licenses/publicdomain/">
        <cc:permits
           rdf:resource="http://creativecommons.org/ns#Reproduction" />
        <cc:permits
           rdf:resource="http://creativecommons.org/ns#Distribution" />
        <cc:permits
           rdf:resource="http://creativecommons.org/ns#DerivativeWorks" />
      </cc:License>
    </rdf:RDF>
  </metadata>
  <g
     inkscape:groupmode="layer"
     inkscape:label="Layer 1"
     id="layer1">
    <path
       transform="matrix(-1.271186,0.000000,0.000000,1.271186,56.54869,-13.15725)"
       d="M 40.481863 36.421127 A 15.644737 8.3968935 0 1 1  9.1923885,36.421127 A 15.644737 8.3968935 0 1 1  40.481863 36.421127 z"
       sodipodi:ry="8.3968935"
       sodipodi:rx="15.644737"
       sodipodi:cy="36.421127"
       sodipodi:cx="24.837126"
       id="path8660"
       style="opacity:0.29946522;color:#000000;fill:url(#radialGradient8668);fill-opacity:1;fill-rule:evenodd;stroke:none;stroke-width:1;stroke-linecap:butt;stroke-linejoin:miter;marker:none;marker-start:none;marker-mid:none;marker-end:none;stroke-miterlimit:10;stroke-dasharray:none;stroke-dashoffset:0;stroke-opacity:1;visibility:visible;display:inline;overflow:visible"
       sodipodi:type="arc" />
    <path
       style="opacity:1.0000000;color:#000000;fill:url(#radialGradient1441);fill-opacity:1.0000000;fill-rule:evenodd;stroke:#3a7304;stroke-width:1.0000004;stroke-linecap:round;stroke-linejoin:round;marker:none;marker-start:none;marker-mid:none;marker-end:none;stroke-miterlimit:10.000000;stroke-dasharray:none;stroke-dashoffset:0.0000000;stroke-opacity:1;visibility:visible;display:inline;overflow:visible"
       d="M 2.5000002,6.4999998 L 8.4962092,6.4999998 L 8.4962092,21.625000 L 26.500000,6.5312498 L 26.562500,14.500000 L 39.500000,14.500000 L 39.500000,32.531250 L 26.562500,32.531250 L 26.562500,40.500000 L 8.4962092,25.125000 L 8.4962092,40.498104 L 2.5000002,40.498104 L 2.5000002,6.4999998 z "
       id="path18242"
       sodipodi:nodetypes="ccccccccccccc" />
    <rect
       style="opacity:0.48099998;fill:none;fill-opacity:1.0000000;fill-rule:evenodd;stroke:#ffffff;stroke-width:1.0000002;stroke-linecap:butt;stroke-linejoin:miter;stroke-miterlimit:4.0000000;stroke-dasharray:none;stroke-dashoffset:0.0000000;stroke-opacity:1.0000000"
       id="rect2163"
       width="32.011883"
       height="4.0094671"
       x="7.4881172"
       y="3.4905324"
       transform="matrix(0.000000,1.000000,1.000000,0.000000,0.000000,0.000000)" />
    <path
       style="opacity:0.48128340;color:#000000;fill:none;fill-opacity:1.0000000;fill-rule:evenodd;stroke:#ffffff;stroke-width:1.0000004;stroke-linecap:butt;stroke-linejoin:miter;marker:none;marker-start:none;marker-mid:none;marker-end:none;stroke-miterlimit:10.000000;stroke-dasharray:none;stroke-dashoffset:0.0000000;stroke-opacity:1.0000000;visibility:visible;display:inline;overflow:visible"
       d="M 38.519933,15.448055 L 38.519933,31.504148 L 25.526984,31.504148 L 25.526984,38.156896 L 8.5312502,23.936088 L 8.5319662,22.764585 L 25.570404,8.5000002 L 25.548307,15.507869 L 38.519933,15.448055 z "
       id="path8658"
       sodipodi:nodetypes="ccccccccc" />
    <path
       sodipodi:nodetypes="ccccccccc"
       id="path8645"
       d="M 26.066367,7.5151738 L 26.035117,15.040398 L 38.946037,14.946648 L 39.008537,23.924861 C 22.258537,17.674861 18.250000,29.344573 3.0000000,23.094573 L 3.0165920,6.9965978 L 7.8456840,6.9611228 L 7.8622750,22.613148 L 26.066367,7.5151738 z "
       style="opacity:0.50802141;color:#000000;fill:url(#radialGradient6058);fill-opacity:1.0000000;fill-rule:evenodd;stroke:none;stroke-width:1.0000000;stroke-linecap:round;stroke-linejoin:round;marker:none;marker-start:none;marker-mid:none;marker-end:none;stroke-miterlimit:10.000000;stroke-dasharray:none;stroke-dashoffset:0.0000000;stroke-opacity:1.0000000;visibility:visible;display:inline;overflow:visible" />
  </g>
</svg>

<svg xmlns="http://www.w3.org/2000/svg" viewBox="0 0 48 48"><defs><radialGradient id="0" gradientUnits="userSpaceOnUse" gradientTransform="matrix(-1.15057 0 0 1.22347 54.742-2.461)" cx="22.752" cy="29.901" r="16.956"><stop stop-color="#73d216"/><stop offset="1" stop-color="#4e9a06"/></radialGradient><radialGradient gradientUnits="userSpaceOnUse" gradientTransform="matrix(1 0 0 .53672 0 16.873)" r="15.645" cy="36.421" cx="24.837" id="1"><stop/><stop offset="1" stop-opacity="0"/></radialGradient><radialGradient id="2" gradientUnits="userSpaceOnUse" gradientTransform="matrix(2.04673 0 0 1.55761-19.71 3.167)" cx="17.475" cy="1.473" r="17.17"><stop stop-color="#fff"/><stop offset="1" stop-color="#fff" stop-opacity="0"/></radialGradient></defs><g fill-rule="evenodd"><g color="#000"><path transform="matrix(-1.27119 0 0 1.27119 56.55-13.157)" d="M40.481863 36.421127A15.644737 8.396893 0 1 1 9.192388 36.421127 15.644737 8.396893 0 1 1 40.481863 36.421127" opacity=".299" fill="url(#1)"/><path d="m2.5 6.5h5.996v15.13l18-15.09.063 7.969h12.938v18.03h-12.938v7.969l-18.07-15.375v15.373h-5.996v-33.998z" stroke-linecap="round" stroke-miterlimit="10" fill="url(#0)" stroke-linejoin="round" stroke="#3a7304"/></g><g fill="none" stroke="#fff"><path transform="matrix(0 1 1 0 0 0)" opacity=".481" d="m7.488 3.491h32.01v4.01h-32.01z"/><path d="m38.52 15.448v16.06h-12.993v6.653l-16.996-14.221v-1.172l17.04-14.265-.022 7.01 12.972-.06z" opacity=".481" color="#000" stroke-miterlimit="10"/></g><path d="m26.07 7.515l-.031 7.525 12.911-.094.063 8.978c-16.75-6.25-20.759 5.42-36.01-.83l.017-16.1 4.829-.035.017 15.652 18.204-15.1" opacity=".508" color="#000" fill="url(#2)"/></g></svg>
